!! 00000] TT[WS
!!!OTL: Chuan menzi
!!!ARE: Asia, China, Shanxi Qinyuan
!! Ethnic Group: Han
!! WII, 102 (3)
!!!SCT: J0548
!!!YEM: Copyright 1995, estate of Helmut Schaffrath.
**kern
*ICvox
*Ivox
*M2/4
*k[f#c#g#]
*A:
{4b
8ee
8ee
=1
8dd
8cc#
4b
=2
4b
8ee
8ee
=3
8dd
8cc#
4b}
=4
{8.ee
16ff#
8ee
8b
=5
8cc#
8b
8a
8g#
=6
8f#
8e
8f#
8g#
=7
2e}
=8
{4b
8cc#
8b
=9
8cc#
8a
8g#
8f#
=10
4e
4ee
=11
8dd
8cc#
4b}
=12
{8ee
8ff#
8ee
8b
=13
8cc#
8b
8a
8g#
=14
8f#
8e
8f#
8g#
=15
2e}
==
!!!AGN: Xiaodiao. Qingge, Sichun
!!!ONB: ESAC (Essen Associative Code) Database: CHINA
!!!AMT: simple duple
!!!AIN: vox
!!!EED: Helmut Schaffrath
!!!EEV: 1.0
*-
